images/WebStudio.svg

<svg width="151" height="20" viewBox="0 0 151 20" fill="none" xmlns="http://www.w3.org/2000/svg">
<path d="M8.242 0.592H11.57L13.676 6.702L15.808 0.592H19.11L15.938 8.99L18.278 14.866L23.504 0.539999H27.404L20.02 19H16.926L13.676 11.252L10.452 19H7.358L0 0.539999H3.848L9.1 14.866L11.388 8.99L8.242 0.592ZM34.227 19.26C32.7536 19.26 31.4796 18.9393 30.405 18.298C29.3476 17.6567 28.5243 16.8073 27.935 15.75C27.3456 14.6753 27.051 13.514 27.051 12.266C27.051 10.9833 27.337 9.80467 27.909 8.73C28.4983 7.638 29.3303 6.77133 30.405 6.13C31.4796 5.47133 32.7623 5.142 34.253 5.142C35.7436 5.142 37.0176 5.47133 38.075 6.13C39.1323 6.77133 39.9383 7.62933 40.493 8.704C41.065 9.76133 41.351 10.9053 41.351 12.136C41.351 12.5867 41.325 12.9767 41.273 13.306H30.743C30.8296 14.3633 31.2196 15.1953 31.913 15.802C32.6236 16.4087 33.4383 16.712 34.357 16.712C35.0503 16.712 35.7003 16.5473 36.307 16.218C36.931 15.8713 37.3556 15.4207 37.581 14.866L40.571 15.698C40.0683 16.738 39.2623 17.596 38.153 18.272C37.0436 18.9307 35.735 19.26 34.227 19.26ZM30.665 11.096H37.789C37.685 10.0733 37.295 9.25 36.619 8.626C35.9603 7.98467 35.1543 7.664 34.201 7.664C33.265 7.664 32.459 7.98467 31.783 8.626C31.1243 9.25 30.7516 10.0733 30.665 11.096ZM52.0014 19.26C50.9614 19.26 50.0341 19.026 49.2194 18.558C48.4048 18.09 47.7634 17.4487 47.2954 16.634V19H44.2534V0.0199995H47.7374V7.768C48.2228 6.95333 48.8554 6.312 49.6354 5.844C50.4328 5.376 51.3601 5.142 52.4174 5.142C53.5961 5.142 54.6274 5.47133 55.5114 6.13C56.4128 6.77133 57.1148 7.62933 57.6174 8.704C58.1201 9.77867 58.3714 10.9573 58.3714 12.24C58.3714 13.5573 58.0941 14.7447 57.5394 15.802C56.9848 16.8593 56.2221 17.7 55.2514 18.324C54.2981 18.948 53.2148 19.26 52.0014 19.26ZM51.0394 16.296C51.7848 16.296 52.4348 16.114 52.9894 15.75C53.5614 15.386 54.0034 14.9007 54.3154 14.294C54.6448 13.67 54.8094 12.994 54.8094 12.266C54.8094 11.5207 54.6534 10.836 54.3414 10.212C54.0468 9.57067 53.6308 9.05933 53.0934 8.678C52.5561 8.29667 51.9408 8.106 51.2474 8.106C50.4848 8.106 49.7828 8.366 49.1414 8.886C48.5174 9.38867 48.0494 10.0127 47.7374 10.758V14.008C47.9628 14.684 48.4048 15.2387 49.0634 15.672C49.7221 16.088 50.3808 16.296 51.0394 16.296Z" fill="#2196F3"/>
<path d="M79.874 5.376C79.718 5.20267 79.3887 4.97733 78.886 4.7C78.3834 4.40533 77.7767 4.14533 77.066 3.92C76.3727 3.67733 75.6534 3.556 74.908 3.556C72.9494 3.556 71.97 4.24933 71.97 5.636C71.97 6.13867 72.126 6.53733 72.438 6.832C72.75 7.12667 73.218 7.378 73.842 7.586C74.466 7.794 75.246 8.01933 76.182 8.262C77.3954 8.574 78.444 8.938 79.328 9.354C80.2294 9.77 80.914 10.3247 81.382 11.018C81.8674 11.694 82.11 12.5953 82.11 13.722C82.11 15.0393 81.7894 16.1053 81.148 16.92C80.524 17.7173 79.692 18.298 78.652 18.662C77.612 19.026 76.4854 19.208 75.272 19.208C73.8854 19.208 72.5074 19 71.138 18.584C69.786 18.1507 68.5814 17.5613 67.524 16.816L69.11 13.722C69.266 13.878 69.5434 14.086 69.942 14.346C70.3407 14.5887 70.826 14.84 71.398 15.1C71.97 15.3427 72.594 15.5507 73.27 15.724C73.946 15.8973 74.6307 15.984 75.324 15.984C77.3 15.984 78.288 15.3513 78.288 14.086C78.288 13.5487 78.0887 13.1153 77.69 12.786C77.2914 12.4567 76.728 12.1793 76 11.954C75.2894 11.7287 74.4574 11.4773 73.504 11.2C72.3254 10.8707 71.346 10.5067 70.566 10.108C69.8034 9.692 69.2314 9.18067 68.85 8.574C68.4687 7.95 68.278 7.16133 68.278 6.208C68.278 4.94267 68.5727 3.88533 69.162 3.036C69.7687 2.16933 70.5834 1.51933 71.606 1.086C72.6287 0.635333 73.764 0.409999 75.012 0.409999C76.2947 0.409999 77.4907 0.617999 78.6 1.034C79.7094 1.45 80.6627 1.92667 81.46 2.464L79.874 5.376ZM93.1227 18.298C92.6547 18.506 92.074 18.714 91.3807 18.922C90.7047 19.13 90.0027 19.234 89.2747 19.234C88.6333 19.234 88.044 19.1213 87.5067 18.896C86.9693 18.6707 86.536 18.3153 86.2067 17.83C85.8947 17.3273 85.7387 16.6773 85.7387 15.88V8.054H83.9447V5.376H85.7387V0.956H89.2227V5.376H92.0827V8.054H89.2227V14.71C89.2227 15.178 89.344 15.516 89.5867 15.724C89.8467 15.932 90.1587 16.036 90.5227 16.036C90.8867 16.036 91.242 15.9753 91.5887 15.854C91.9353 15.7327 92.2127 15.6287 92.4207 15.542L93.1227 18.298ZM95.5872 13.904V5.376H99.0712V13.15C99.0712 15.2473 99.8252 16.296 101.333 16.296C102.009 16.296 102.659 16.0967 103.283 15.698C103.925 15.282 104.445 14.658 104.843 13.826V5.376H108.327V15.1C108.327 15.4813 108.388 15.75 108.509 15.906C108.631 16.0447 108.847 16.1313 109.159 16.166V19C108.813 19.0693 108.518 19.1127 108.275 19.13C108.05 19.1473 107.842 19.156 107.651 19.156C107.027 19.156 106.516 19.0173 106.117 18.74C105.736 18.4453 105.511 18.0467 105.441 17.544L105.363 16.452C104.757 17.388 103.977 18.09 103.023 18.558C102.07 19.026 101.021 19.26 99.8772 19.26C98.4732 19.26 97.4072 18.8093 96.6792 17.908C95.9512 16.9893 95.5872 15.6547 95.5872 13.904ZM111.737 12.188C111.737 10.888 111.997 9.70067 112.517 8.626C113.037 7.55133 113.757 6.702 114.675 6.078C115.594 5.454 116.643 5.142 117.821 5.142C118.827 5.142 119.728 5.39333 120.525 5.896C121.34 6.38133 121.973 7.00533 122.423 7.768V0.0199995H125.907V15.1C125.907 15.4813 125.968 15.75 126.089 15.906C126.211 16.0447 126.419 16.1313 126.713 16.166V19C126.089 19.1213 125.595 19.182 125.231 19.182C124.607 19.182 124.087 19.026 123.671 18.714C123.273 18.402 123.047 17.9947 122.995 17.492L122.943 16.634C122.441 17.4833 121.756 18.1333 120.889 18.584C120.04 19.0347 119.147 19.26 118.211 19.26C116.946 19.26 115.828 18.948 114.857 18.324C113.887 17.6827 113.124 16.8333 112.569 15.776C112.015 14.7013 111.737 13.5053 111.737 12.188ZM122.423 14.008V10.758C122.146 9.99533 121.669 9.36267 120.993 8.86C120.317 8.35733 119.624 8.106 118.913 8.106C118.203 8.106 117.579 8.30533 117.041 8.704C116.504 9.08533 116.088 9.59667 115.793 10.238C115.499 10.862 115.351 11.538 115.351 12.266C115.351 13.0113 115.516 13.696 115.845 14.32C116.175 14.9267 116.617 15.412 117.171 15.776C117.743 16.1227 118.393 16.296 119.121 16.296C119.78 16.296 120.43 16.0793 121.071 15.646C121.73 15.2127 122.181 14.6667 122.423 14.008ZM130.107 3.478V0.0199995H133.591V3.478H130.107ZM130.107 19V5.376H133.591V19H130.107ZM143.806 19.26C142.316 19.26 141.033 18.9393 139.958 18.298C138.901 17.6393 138.086 16.7727 137.514 15.698C136.942 14.6233 136.656 13.462 136.656 12.214C136.656 10.9487 136.942 9.77867 137.514 8.704C138.104 7.62933 138.927 6.77133 139.984 6.13C141.059 5.47133 142.333 5.142 143.806 5.142C145.28 5.142 146.545 5.47133 147.602 6.13C148.677 6.77133 149.5 7.62933 150.072 8.704C150.644 9.77867 150.93 10.9487 150.93 12.214C150.93 13.462 150.644 14.6233 150.072 15.698C149.5 16.7727 148.677 17.6393 147.602 18.298C146.545 18.9393 145.28 19.26 143.806 19.26ZM140.244 12.214C140.244 13.0113 140.4 13.722 140.712 14.346C141.024 14.9527 141.449 15.4293 141.986 15.776C142.524 16.1227 143.13 16.296 143.806 16.296C144.465 16.296 145.063 16.1227 145.6 15.776C146.138 15.412 146.562 14.9267 146.874 14.32C147.204 13.696 147.368 12.9853 147.368 12.188C147.368 11.408 147.204 10.7147 146.874 10.108C146.562 9.484 146.138 8.99867 145.6 8.652C145.063 8.288 144.465 8.106 143.806 8.106C143.13 8.106 142.524 8.288 141.986 8.652C141.449 8.99867 141.024 9.484 140.712 10.108C140.4 10.7147 140.244 11.4167 140.244 12.214Z" fill="black"/>
</svg>

<svg width="151" height="20" fill="none" xmlns="http://www.w3.org/2000/svg"><path d="M8.242.592h3.328l2.106 6.11 2.132-6.11h3.302L15.938 8.99l2.34 5.876L23.504.54h3.9L20.02 19h-3.094l-3.25-7.748L10.452 19H7.358L0 .54h3.848L9.1 14.866l2.288-5.876L8.242.592zM34.227 19.26c-1.473 0-2.747-.32-3.822-.962a6.826 6.826 0 01-2.47-2.548 7.13 7.13 0 01-.884-3.484c0-1.283.286-2.461.858-3.536a6.662 6.662 0 012.496-2.6c1.075-.659 2.357-.988 3.848-.988 1.49 0 2.765.33 3.822.988a6.395 6.395 0 012.418 2.574 7.1 7.1 0 01.858 3.432c0 .45-.026.84-.078 1.17h-10.53c.087 1.057.477 1.89 1.17 2.496.71.607 1.525.91 2.444.91.693 0 1.343-.165 1.95-.494.624-.347 1.049-.797 1.274-1.352l2.99.832c-.503 1.04-1.309 1.898-2.418 2.574-1.11.659-2.418.988-3.926.988zm-3.562-8.164h7.124c-.104-1.023-.494-1.846-1.17-2.47-.659-.641-1.465-.962-2.418-.962-.936 0-1.742.32-2.418.962-.659.624-1.031 1.447-1.118 2.47zm21.336 8.164c-1.04 0-1.967-.234-2.782-.702a5.126 5.126 0 01-1.924-1.924V19h-3.042V.02h3.484v7.748a5.457 5.457 0 011.898-1.924c.798-.468 1.725-.702 2.782-.702 1.18 0 2.21.33 3.094.988.902.641 1.604 1.5 2.106 2.574.503 1.075.754 2.253.754 3.536 0 1.317-.277 2.505-.832 3.562a6.561 6.561 0 01-2.288 2.522c-.953.624-2.036.936-3.25.936zm-.962-2.964c.746 0 1.396-.182 1.95-.546a3.702 3.702 0 001.326-1.456c.33-.624.494-1.3.494-2.028 0-.745-.156-1.43-.468-2.054a3.764 3.764 0 00-1.248-1.534 3.11 3.11 0 00-1.846-.572c-.762 0-1.464.26-2.106.78a4.693 4.693 0 00-1.404 1.872v3.25c.226.676.668 1.23 1.326 1.664.66.416 1.318.624 1.976.624z" fill="#2196F3"/><path d="M79.874 5.376c-.156-.173-.485-.399-.988-.676-.503-.295-1.11-.555-1.82-.78a6.485 6.485 0 00-2.158-.364c-1.959 0-2.938.693-2.938 2.08 0 .503.156.901.468 1.196.312.295.78.546 1.404.754.624.208 1.404.433 2.34.676 1.213.312 2.262.676 3.146 1.092.901.416 1.586.97 2.054 1.664.485.676.728 1.577.728 2.704 0 1.317-.32 2.383-.962 3.198-.624.797-1.456 1.378-2.496 1.742-1.04.364-2.167.546-3.38.546-1.387 0-2.765-.208-4.134-.624-1.352-.433-2.557-1.023-3.614-1.768l1.586-3.094c.156.156.433.364.832.624.399.243.884.494 1.456.754.572.243 1.196.45 1.872.624a8.24 8.24 0 002.054.26c1.976 0 2.964-.633 2.964-1.898 0-.537-.2-.97-.598-1.3-.399-.33-.962-.607-1.69-.832-.71-.225-1.543-.477-2.496-.754-1.179-.33-2.158-.693-2.938-1.092-.763-.416-1.335-.927-1.716-1.534-.381-.624-.572-1.413-.572-2.366 0-1.265.295-2.323.884-3.172.607-.867 1.421-1.517 2.444-1.95C72.629.636 73.764.41 75.012.41c1.283 0 2.479.208 3.588.624 1.11.416 2.063.893 2.86 1.43l-1.586 2.912zm13.249 12.922c-.468.208-1.049.416-1.742.624a7.12 7.12 0 01-2.106.312c-.642 0-1.231-.113-1.768-.338a2.892 2.892 0 01-1.3-1.066c-.312-.503-.468-1.153-.468-1.95V8.054h-1.794V5.376h1.794V.956h3.484v4.42h2.86v2.678h-2.86v6.656c0 .468.121.806.364 1.014.26.208.572.312.936.312.364 0 .719-.06 1.066-.182.346-.121.624-.225.832-.312l.702 2.756zm2.464-4.394V5.376h3.484v7.774c0 2.097.754 3.146 2.262 3.146.676 0 1.326-.2 1.95-.598.642-.416 1.162-1.04 1.56-1.872v-8.45h3.484V15.1c0 .381.061.65.182.806.122.139.338.225.65.26V19a7.244 7.244 0 01-1.508.156c-.624 0-1.135-.139-1.534-.416-.381-.295-.606-.693-.676-1.196l-.078-1.092c-.606.936-1.386 1.638-2.34 2.106-.953.468-2.002.702-3.146.702-1.404 0-2.47-.45-3.198-1.352-.728-.919-1.092-2.253-1.092-4.004zm16.15-1.716c0-1.3.26-2.487.78-3.562.52-1.075 1.24-1.924 2.158-2.548.919-.624 1.968-.936 3.146-.936 1.006 0 1.907.251 2.704.754.815.485 1.448 1.11 1.898 1.872V.02h3.484V15.1c0 .381.061.65.182.806.122.139.33.225.624.26V19c-.624.121-1.118.182-1.482.182-.624 0-1.144-.156-1.56-.468a1.72 1.72 0 01-.676-1.222l-.052-.858a5.05 5.05 0 01-2.054 1.95 5.634 5.634 0 01-2.678.676c-1.265 0-2.383-.312-3.354-.936a6.772 6.772 0 01-2.288-2.548c-.554-1.075-.832-2.27-.832-3.588zm10.686 1.82v-3.25a4.05 4.05 0 00-1.43-1.898c-.676-.503-1.369-.754-2.08-.754-.71 0-1.334.2-1.872.598a3.77 3.77 0 00-1.248 1.534 4.698 4.698 0 00-.442 2.028c0 .745.165 1.43.494 2.054a3.99 3.99 0 001.326 1.456c.572.347 1.222.52 1.95.52.659 0 1.309-.217 1.95-.65.659-.433 1.11-.98 1.352-1.638zm7.684-10.53V.02h3.484v3.458h-3.484zm0 15.522V5.376h3.484V19h-3.484zm13.699.26c-1.49 0-2.773-.32-3.848-.962a6.769 6.769 0 01-2.444-2.6 7.302 7.302 0 01-.858-3.484c0-1.265.286-2.435.858-3.51a6.779 6.779 0 012.47-2.574c1.075-.659 2.349-.988 3.822-.988 1.474 0 2.739.33 3.796.988a6.523 6.523 0 012.47 2.574 7.354 7.354 0 01.858 3.51c0 1.248-.286 2.41-.858 3.484-.572 1.075-1.395 1.941-2.47 2.6-1.057.641-2.322.962-3.796.962zm-3.562-7.046c0 .797.156 1.508.468 2.132a3.649 3.649 0 001.274 1.43c.538.347 1.144.52 1.82.52.659 0 1.257-.173 1.794-.52.538-.364.962-.85 1.274-1.456.33-.624.494-1.335.494-2.132 0-.78-.164-1.473-.494-2.08-.312-.624-.736-1.11-1.274-1.456a3.126 3.126 0 00-1.794-.546c-.676 0-1.282.182-1.82.546-.537.347-.962.832-1.274 1.456-.312.607-.468 1.309-.468 2.106z" fill="#000"/></svg>
